public/images/icon-4.svg

<svg width="52" height="52" viewBox="0 0 52 52" fill="none" xmlns="http://www.w3.org/2000/svg">
<g filter="url(#filter0_d_1957_25035)">
<rect x="2" y="1" width="48" height="48" rx="10" fill="white" shape-rendering="crispEdges"/>
<rect x="2.5" y="1.5" width="47" height="47" rx="9.5" stroke="#EAECF0" shape-rendering="crispEdges"/>
</g>
<path fill-rule="evenodd" clip-rule="evenodd" d="M25.8107 24.8887C26.6793 21.7976 29.8004 20.2913 32.7818 21.5241C34.2135 22.1161 35.4209 23.2736 36.1383 24.7418C36.8557 26.21 37.0244 27.8688 36.6073 29.3532C35.7387 32.4442 32.6177 33.9506 29.6362 32.7177C26.6548 31.4849 24.9421 27.9797 25.8107 24.8887ZM35.4352 33.8156L36.6703 35.808L36.6982 35.8195C36.929 36.2904 36.7755 36.8365 36.3554 37.0392C35.9352 37.242 35.4075 37.0246 35.1767 36.5537L34.282 34.4371C34.1923 34.255 34.1711 34.0489 34.2229 33.8645C34.2748 33.6801 34.3954 33.5326 34.5582 33.4544C34.8712 33.3071 35.2614 33.4678 35.4352 33.8156Z" fill="url(#paint0_linear_1957_25035)"/>
<g filter="url(#filter1_f_1957_25035)">
<path d="M32.0454 23.9699C30.4066 23.3544 28.7061 24.2663 28.2472 26.0066C27.7883 27.747 28.7448 29.6567 30.3836 30.2722C32.0223 30.8877 33.7228 29.9759 34.1817 28.2355C34.4021 27.3998 34.3008 26.4809 33.9002 25.6809C33.4995 24.8809 32.8323 24.2655 32.0454 23.9699Z" fill="#0E4DC7"/>
</g>
<g filter="url(#filter2_b_1957_25035)">
<g filter="url(#filter3_b_1957_25035)">
<mask id="path-5-outside-1_1957_25035" maskUnits="userSpaceOnUse" x="9.84289" y="8.58782" width="28.6677" height="31.6415" fill="black">
<rect fill="white" x="9.84289" y="8.58782" width="28.6677" height="31.6415"/>
<path fill-rule="evenodd" clip-rule="evenodd" d="M33.1684 19.347C31.8728 14.7363 27.2174 12.4894 22.7702 14.3283C20.6346 15.2114 18.8337 16.9378 17.7635 19.1279C16.6934 21.3179 16.4417 23.7922 17.0639 26.0063C18.3596 30.6169 23.015 32.8639 27.4621 31.0249C31.9093 29.186 34.4641 23.9576 33.1684 19.347ZM18.8126 32.663L16.9703 35.6347L16.9286 35.6519C16.5844 36.3543 16.8133 37.1689 17.4401 37.4713C18.0668 37.7738 18.8539 37.4495 19.1982 36.7471L20.5328 33.59C20.6665 33.3183 20.6982 33.0109 20.6208 32.7359C20.5435 32.4608 20.3636 32.2407 20.1207 32.1241C19.6539 31.9044 19.0719 32.1442 18.8126 32.663Z"/>
</mask>
<path fill-rule="evenodd" clip-rule="evenodd" d="M33.1684 19.347C31.8728 14.7363 27.2174 12.4894 22.7702 14.3283C20.6346 15.2114 18.8337 16.9378 17.7635 19.1279C16.6934 21.3179 16.4417 23.7922 17.0639 26.0063C18.3596 30.6169 23.015 32.8639 27.4621 31.0249C31.9093 29.186 34.4641 23.9576 33.1684 19.347ZM18.8126 32.663L16.9703 35.6347L16.9286 35.6519C16.5844 36.3543 16.8133 37.1689 17.4401 37.4713C18.0668 37.7738 18.8539 37.4495 19.1982 36.7471L20.5328 33.59C20.6665 33.3183 20.6982 33.0109 20.6208 32.7359C20.5435 32.4608 20.3636 32.2407 20.1207 32.1241C19.6539 31.9044 19.0719 32.1442 18.8126 32.663Z" fill="#4780F0"/>
<path d="M22.7702 14.3283L22.4368 13.2171L22.7702 14.3283ZM17.7635 19.1279L18.7631 19.6033L18.7631 19.6033L17.7635 19.1279ZM17.0639 26.0063L15.9735 26.4353L17.0639 26.0063ZM27.4621 31.0249L27.1287 29.9137L27.4621 31.0249ZM16.9703 35.6347L17.9041 36.2292C17.7588 36.4636 17.5467 36.6459 17.3023 36.7466L16.9703 35.6347ZM18.8126 32.663L19.8067 33.1493C19.7882 33.1862 19.7681 33.2223 19.7463 33.2574L18.8126 32.663ZM16.9286 35.6519L15.9298 35.175C16.0716 34.8858 16.3112 34.6577 16.5967 34.5401L16.9286 35.6519ZM17.4401 37.4713L17.9826 36.3738L17.4401 37.4713ZM19.1982 36.7471L20.2283 37.1554C20.2185 37.1785 20.2081 37.2014 20.197 37.224L19.1982 36.7471ZM20.5328 33.59L19.5027 33.1817C19.5127 33.1579 19.5235 33.1344 19.5349 33.1112L20.5328 33.59ZM20.1207 32.1241L20.6544 31.0223L20.6616 31.0257L20.1207 32.1241ZM22.4368 13.2171C27.4958 11.1251 32.789 13.6872 34.2589 18.9179L32.078 19.776C30.9566 15.7854 26.9389 13.8536 23.1037 15.4395L22.4368 13.2171ZM16.764 18.6525C17.9737 16.1767 20.0122 14.2197 22.4368 13.2171L23.1037 15.4395C21.2571 16.2031 19.6936 17.699 18.7631 19.6033L16.764 18.6525ZM15.9735 26.4353C15.2686 23.9268 15.5544 21.128 16.764 18.6525L18.7631 19.6033C17.8324 21.5079 17.6149 23.6575 18.1544 25.5772L15.9735 26.4353ZM27.7956 32.1362C22.7365 34.2281 17.4434 31.666 15.9735 26.4353L18.1544 25.5772C19.2758 29.5679 23.2935 31.4996 27.1287 29.9137L27.7956 32.1362ZM34.2589 18.9179C35.7245 24.1336 32.8396 30.0504 27.7956 32.1362L27.1287 29.9137C30.979 28.3216 33.2036 23.7816 32.078 19.776L34.2589 18.9179ZM16.0365 35.0403L17.8788 32.0685L19.7463 33.2574L17.9041 36.2292L16.0365 35.0403ZM16.5967 34.5401L16.6383 34.5229L17.3023 36.7466L17.2606 36.7637L16.5967 34.5401ZM16.8975 38.5689C15.7068 37.9943 15.2969 36.4663 15.9298 35.175L17.9275 36.1288C17.8718 36.2423 17.9199 36.3435 17.9826 36.3738L16.8975 38.5689ZM20.197 37.224C19.5626 38.5184 18.0913 39.145 16.8975 38.5689L17.9826 36.3738C18.0423 36.4026 18.1452 36.3807 18.1994 36.2702L20.197 37.224ZM21.5629 33.9982L20.2283 37.1554L18.1681 36.3389L19.5027 33.1817L21.5629 33.9982ZM21.7113 32.3068C21.8717 32.8774 21.8052 33.5108 21.5307 34.0687L19.5349 33.1112C19.5277 33.1258 19.5246 33.1445 19.5304 33.165L21.7113 32.3068ZM20.6616 31.0257C21.1747 31.2721 21.5506 31.7353 21.7113 32.3068L19.5304 33.165C19.5364 33.1864 19.5524 33.2093 19.5799 33.2225L20.6616 31.0257ZM17.8184 32.1766C18.3689 31.0752 19.625 30.5379 20.6544 31.0223L19.587 33.2259C19.6828 33.2709 19.7748 33.2132 19.8067 33.1493L17.8184 32.1766Z" fill="url(#paint1_linear_1957_25035)" mask="url(#path-5-outside-1_1957_25035)"/>
</g>
</g>
<defs>
<filter id="filter0_d_1957_25035" x="0" y="0" width="52" height="52" filterUnits="userSpaceOnUse" color-interpolation-filters="sRGB">
<feFlood flood-opacity="0" result="BackgroundImageFix"/>
<feColorMatrix in="SourceAlpha" type="matrix" values="0 0 0 0 0 0 0 0 0 0 0 0 0 0 0 0 0 0 127 0" result="hardAlpha"/>
<feOffset dy="1"/>
<feGaussianBlur stdDeviation="1"/>
<feComposite in2="hardAlpha" operator="out"/>
<feColorMatrix type="matrix" values="0 0 0 0 0.0627451 0 0 0 0 0.0941176 0 0 0 0 0.156863 0 0 0 0.05 0"/>
<feBlend mode="normal" in2="BackgroundImageFix" result="effect1_dropShadow_1957_25035"/>
<feBlend mode="normal" in="SourceGraphic" in2="effect1_dropShadow_1957_25035" result="shape"/>
</filter>
<filter id="filter1_f_1957_25035" x="10.6494" y="6.29395" width="41.1309" height="41.6543" filterUnits="userSpaceOnUse" color-interpolation-filters="sRGB">
<feFlood flood-opacity="0" result="BackgroundImageFix"/>
<feBlend mode="normal" in="SourceGraphic" in2="BackgroundImageFix" result="shape"/>
<feGaussianBlur stdDeviation="8.7417" result="effect1_foregroundBlur_1957_25035"/>
</filter>
<filter id="filter2_b_1957_25035" x="-12.3797" y="-15.4851" width="74.9937" height="82.2418" filterUnits="userSpaceOnUse" color-interpolation-filters="sRGB">
<feFlood flood-opacity="0" result="BackgroundImageFix"/>
<feGaussianBlur in="BackgroundImageFix" stdDeviation="13.9867"/>
<feComposite in2="SourceAlpha" operator="in" result="effect1_backgroundBlur_1957_25035"/>
<feBlend mode="normal" in="SourceGraphic" in2="effect1_backgroundBlur_1957_25035" result="shape"/>
</filter>
<filter id="filter3_b_1957_25035" x="-12.3797" y="-15.4851" width="74.9937" height="82.2418" filterUnits="userSpaceOnUse" color-interpolation-filters="sRGB">
<feFlood flood-opacity="0" result="BackgroundImageFix"/>
<feGaussianBlur in="BackgroundImageFix" stdDeviation="13.9867"/>
<feComposite in2="SourceAlpha" operator="in" result="effect1_backgroundBlur_1957_25035"/>
<feBlend mode="normal" in="SourceGraphic" in2="effect1_backgroundBlur_1957_25035" result="shape"/>
</filter>
<linearGradient id="paint0_linear_1957_25035" x1="40.0661" y1="24.254" x2="23.1308" y2="31.1222" gradientUnits="userSpaceOnUse">
<stop stop-color="#4780F0"/>
<stop offset="1" stop-color="#4780F0"/>
</linearGradient>
<linearGradient id="paint1_linear_1957_25035" x1="28.5978" y1="14.6449" x2="16.8682" y2="36.7305" gradientUnits="userSpaceOnUse">
<stop stop-color="#8EB4FF"/>
<stop offset="1" stop-color="#8EB4FF"/>
</linearGradient>
</defs>
</svg>

<?xml version="1.0" encoding="UTF-8"?>
<svg id="Layer_1" xmlns="http://www.w3.org/2000/svg" version="1.1" xmlns:xlink="http://www.w3.org/1999/xlink" viewBox="0 0 52 52">
  <!-- Generator: Adobe Illustrator 30.0.0, SVG Export Plug-In . SVG Version: 2.1.1 Build 123)  -->
  <defs>
    <style>
      .st0 {
        fill: none;
        stroke: #eaecf0;
      }

      .st1 {
        fill: #fff;
      }

      .st2 {
        mask: url(#mask);
      }

      .st3, .st4 {
        fill-rule: evenodd;
      }

      .st5 {
        fill: #3f00c9;
      }

      .st6 {
        fill: url(#linear-gradient);
      }

      .st4 {
        fill: #6b1aff;
      }
    </style>
    <mask id="mask" x="9.84" y="8.59" width="28.67" height="31.64" maskUnits="userSpaceOnUse">
      <g id="path-5-outside-1_1957_25035">
        <rect class="st1" x="9.84" y="8.59" width="28.67" height="31.64"/>
        <path class="st3" d="M33.17,19.35c-1.3-4.61-5.95-6.86-10.4-5.02-2.14.88-3.94,2.61-5.01,4.8-1.07,2.19-1.32,4.66-.7,6.88,1.3,4.61,5.95,6.86,10.4,5.02,4.45-1.84,7-7.07,5.71-11.68ZM18.81,32.66l-1.84,2.97-.04.02c-.34.7-.12,1.52.51,1.82.63.3,1.41-.02,1.76-.72l1.33-3.16c.13-.27.17-.58.09-.85-.08-.28-.26-.5-.5-.61-.47-.22-1.05.02-1.31.54Z"/>
      </g>
    </mask>
    <linearGradient id="linear-gradient" x1="29.21" y1="39.03" x2="17.48" y2="16.94" gradientTransform="translate(0 54) scale(1 -1)" gradientUnits="userSpaceOnUse">
      <stop offset="0" stop-color="#8eb4ff"/>
      <stop offset="1" stop-color="#8eb4ff"/>
    </linearGradient>
  </defs>
  <g>
    <rect class="st1" x="2" y="1" width="48" height="48" rx="10" ry="10" shape-rendering="crispEdges"/>
    <rect class="st0" x="2.5" y="1.5" width="47" height="47" rx="9.5" ry="9.5" shape-rendering="crispEdges"/>
  </g>
  <path class="st4" d="M25.81,24.89c.87-3.09,3.99-4.6,6.97-3.36,1.43.59,2.64,1.75,3.36,3.22.72,1.47.89,3.13.47,4.61-.87,3.09-3.99,4.6-6.97,3.36-2.98-1.23-4.69-4.74-3.83-7.83ZM35.44,33.82l1.24,1.99h.03c.23.48.08,1.03-.34,1.23-.42.2-.95-.01-1.18-.49l-.89-2.12c-.09-.18-.11-.39-.06-.57.05-.18.17-.33.34-.41.31-.15.7.01.88.36Z"/>
  <path class="st5" d="M32.05,23.97c-1.64-.62-3.34.3-3.8,2.04-.46,1.74.5,3.65,2.14,4.27,1.64.62,3.34-.3,3.8-2.04.22-.84.12-1.75-.28-2.55-.4-.8-1.07-1.42-1.85-1.71Z"/>
  <g>
    <path class="st4" d="M33.17,19.35c-1.3-4.61-5.95-6.86-10.4-5.02-2.14.88-3.94,2.61-5.01,4.8-1.07,2.19-1.32,4.66-.7,6.88,1.3,4.61,5.95,6.86,10.4,5.02,4.45-1.84,7-7.07,5.71-11.68ZM18.81,32.66l-1.84,2.97-.04.02c-.34.7-.12,1.52.51,1.82.63.3,1.41-.02,1.76-.72l1.33-3.16c.13-.27.17-.58.09-.85-.08-.28-.26-.5-.5-.61-.47-.22-1.05.02-1.31.54Z"/>
    <g class="st2">
      <path class="st6" d="M22.77,14.33l-.33-1.11.33,1.11ZM17.76,19.13l1,.48h0l-1-.48ZM17.06,26.01l-1.09.43,1.09-.43ZM27.46,31.02l-.33-1.11.33,1.11ZM16.97,35.63l.93.59c-.15.23-.36.42-.6.52l-.33-1.11ZM18.81,32.66l.99.49s-.04.07-.06.11l-.93-.59ZM16.93,35.65l-1-.48c.14-.29.38-.52.67-.63l.33,1.11ZM17.44,37.47l.54-1.1-.54,1.1ZM19.2,36.75l1.03.41s-.02.05-.03.07l-1-.48ZM20.53,33.59l-1.03-.41s.02-.05.03-.07l1,.48ZM20.12,32.12l.53-1.1h0s-.54,1.1-.54,1.1ZM22.44,13.22c5.06-2.09,10.35.47,11.82,5.7l-2.18.86c-1.12-3.99-5.14-5.92-8.97-4.34l-.67-2.22ZM16.76,18.65c1.21-2.48,3.25-4.43,5.67-5.44l.67,2.22c-1.85.76-3.41,2.26-4.34,4.16l-2-.95ZM15.97,26.44c-.7-2.51-.42-5.31.79-7.78l2,.95c-.93,1.9-1.15,4.05-.61,5.97l-2.18.86ZM27.8,32.14c-5.06,2.09-10.35-.47-11.82-5.7l2.18-.86c1.12,3.99,5.14,5.92,8.97,4.34l.67,2.22ZM34.26,18.92c1.47,5.22-1.42,11.13-6.46,13.22l-.67-2.22c3.85-1.59,6.07-6.13,4.95-10.14l2.18-.86ZM16.04,35.04l1.84-2.97,1.87,1.19-1.84,2.97-1.87-1.19ZM16.6,34.54l.04-.02.66,2.22-.04.02-.66-2.22ZM16.9,38.57c-1.19-.57-1.6-2.1-.97-3.39l2,.95c-.06.11,0,.21.06.24l-1.09,2.2ZM20.2,37.22c-.63,1.29-2.11,1.92-3.3,1.34l1.09-2.2c.06.03.16,0,.22-.1l2,.95ZM21.56,34l-1.33,3.16-2.06-.82,1.33-3.16,2.06.82ZM21.71,32.31c.16.57.09,1.2-.18,1.76l-2-.96s-.01.03,0,.05l2.18-.86ZM20.66,31.03c.51.25.89.71,1.05,1.28l-2.18.86s.02.04.05.06l1.08-2.2ZM17.82,32.18c.55-1.1,1.81-1.64,2.84-1.15l-1.07,2.2c.1.05.19-.01.22-.08l-1.99-.97Z"/>
    </g>
  </g>
</svg>
